X:1
T:Ab oriente - Handl
T:James Gibb editions
T:#
%%score [ 1 2 3 4 ]
L:1/8
Q:1/4=43
M:2/2
K:G
V:1 treble nm="Soprano" snm="S"
V:2 treble nm="Alto" snm="A"
V:3 treble-8 nm="Tenor" snm="T"
V:4 bass nm="Bass" snm="B"
V:1
"^Ab Oriente venerunt Magi""^Jacob Handl\n(1550-91)" z4 E4 | E6 ^D2 | E2 F2 G4 | F2 G2 A2 B2 | %4
w: Ab|O- ri-|en- te ve-|ne- runt Ma- gi|
 c4 B2 e2 |[M:2/2] (ed^cB A3 G/F/ | E4) z4 | e4 d2 c2 | A2 z G =F2 D2 | E4 z4 | (G4 A4- | %11
w: in Beth- le-|hem, * * * * * *||in Beth- le-|hem, in Beth- le-|hem,|a\- *|
 A2) A2 A4- | A4 G4 | =F6 F2 | E2 e2 e2 B2 | c2 d2 A2 A2 | (cB e3 d d2- | dc c4 B2) | c4 c3 B | %19
w: * do- ra\-|* re|Do- mi-|num: et a- per-|tis the- sau- ris|su\- * * * *||is, pre- ti-|
 A2 ^G2 A3 A | ^G2 B2 E2 (=G2- | GE A3 ^G G2) | A4 z2 (AB | cA d2) c2 B2- | B2 A2 B2 B2 | %25
w: o- sa mu- ne-|ra ob- tu- le\-||runt: Au\- *|* * * rum si\-|* cut Re- gi|
[Q:1/4=80][Q:1/4=80][Q:1/4=80][Q:1/4=80] (AG GF/E/ F4) | ^G4 (B3 c | dB e2) e2 d2 | e4 B2 (Bc | %29
w: ma\- * * * * *|gno: Thus *|* * * si- cut|De- o ve\- *|
 dB c3 B/A/ B2) | c4 (G3 A | BG c2) B2 B2 | A2 G3 G F2 | G2 (EF GE A2) | G E2 D E4- | E2 E2 D4 | %36
w: |ro; Myr\- *|* * * rham se-|pul- tu- rae e-|jus, Myr\-- * * * *|rham se- pul- tu\-|* rae e-|
 E2 e2 d e2 c | z cGA B c2 B | c2 A2 z A2 A | (GE A4 ^G2) | A2 e2 d e2 c | z cGA B c2 B | %42
w: jus, Al- le- lu- ja,|Al- le- lu- ja, Al- le-|lu- ja, Al- le-|lu\- * * *|ja, Al- le\-lu- * ja,|Al- le- lu- ja, Al- le-|
 c2 A2 z A2 A | (GE A4 ^G2) | A8- | !fermata!A8 |] %46
w: lu- ja, Al- le-|lu\- * * *|ja.||
V:2
 A,4 A,4- | A,2 ^G,2 A,2 B,2 | C4 B,2 C2 | D2 E2 =F4 | E2 A2 (GFED |[M:2/2] ^C3 D E4) | %6
w: Ab O\-|* ri- en- te|ve- ne- runt|Ma- gi in|Beth- le- hem, * * *||
 z4 z2 B,2- | B,2 A,2 B,2 E2 | D2 C2 (C2 B,A, | G,2) A,2 E,4 | E4 =F4 | =F4 F4 | z2 (=F4 E2- | %13
w: ve\-|* ne- runt Ma-|gi in Beth\- * *|* le- hem,|a- do-|ra- re|Do\- *|
 E2 DC D2) D2 | ^C4 z2 G2 | G2 F2 E2 F2 | G4 G4 | (AGEF G4) | G4 G3 G | E2 E2 C2 =F2 | E2 (G3 FED | %21
w: * * * * mi-|num: et|a- per- tis the-|sau- ris|su\- * * * *|is, pre- ti-|o- sa mu- ne-|ra ob\- * * *|
 E2) E2 E4 | E2 (CD EC =F2) | E2 D2 E2 G2- | G2 E2 (G3 F | ED E4 ^D2) | E4 z4 | z2 (EF GE A2) | %28
w: * tu- le-|runt: Au\- * * * *|rum si- cut Re\-|* gi ma\- *||gno:|Thus * * * *|
 G2 E2 G4 | G4 G4 | E4 z2 (EF | GE A2) G2 F2 | E2 E3 ^D D2 | E6 (A,B, | CA, A2) G2 G2 | %35
w: si- cut De-|o ve-|ro; Myr\- *|* * * rham se-|pul- tu- rae e-|jus, Myr\- *|* * * rham se-|
 G,2 C3 B, B,2 | C4 z2 E2 | D E2 C GA G2 | E C2 A, B,A, =F2 | E2 D2 E4- | E4 z2 E2 | D E2 C GA G2 | %42
w: pul- tu- rae e-|jus, Al-|le- lu- ja, Al- le- lu-|ja, Al- le- lu- ja, Al-|le- lu- ja,|* Al-|le- lu- ja, Al- le- lu-|
 E C2 A, B,A, F2 | E2 D2 E4 | z2 =F3 E F2 | !fermata!E8 |] %46
w: ja, Al- le- lu- ja, Al-|le- lu- ja,|Al- le\-lu- *|ja.|
V:3
 z8 | z8 | z8 | z8 | z8 |[M:2/2][K:treble-8] z4 E4 | E6 ^D2 | E2 F2 G4 | F2 G2 A2 B2 | c4 B2 e2 | %10
w: |||||Ab|O- ri-|en- te ve-|ne- runt Ma- gi|in Beth- le-|
 (edcB A4) | c6 c2 | c4 c4 | A6 A2 | A4 e4 | e2 B2 c2 d2 | (e3 d c2) d2 | (e2 dc d4) | c4 e3 d | %19
w: \-hem, * * * *|a- do-|ra- re|Do- mi-|num: et|a- per- tis the-|sau\- * * ris|su\- * * *|is, pre- ti-|
 c2 B2 A2 d2 | B2 (e3 dcB | c2) c2 B4 | A2 (AB cA d2) | c2 B2 A2 e2 | B2 c2 B4 | z8 | %26
w: o- sa mu- ne-|ra ob\- * * *|* tu- le-|runt: Au\- * * * *|rum si- cut Re-|gi ma- gno:||
 (B3 c dB e2) | d2 c2 Bc A2 | B2 ^c2 d2 d2- | d2 e2 d4 | c2 (GA BG c2) | B c2 A e2 d2 | c4 B4 | %33
w: Thus * * * *|si- cut De- o ve-|ro, si- cut De\-|* o ve-|ro; Myr\- * * * *|rham se- pul- tu- rae|e- jus,|
 z4 (c3 d | ec =f2) e2 d2 | c2 G3 G G2 | G2 z c B c2 A | z A (c/d/e/c/ d)=f d2 | z e2 d e c2 d | %39
w: Myr\- *|* * * rham se-|pul- tu- rae e-|jus, Al- le- lu- ja,|Al- le\- * * * * lu- ja,|Al- le- lu- ja, Al-|
 B2 A2 (B3 A/B/ | ^c2 z =c B c2 A | z A (c/d/e/c/ d)=f d2 | z e2 d e c2 d | B2 A2 B3 A/B/ | %44
w: le- lu- ja, * *|* Al- le- lu- ja,|Al- le- * * * * lu- ja,|Al- le- lu- ja, Al-|le- lu- ja, * *|
 ^c2) d3 e d2 | !fermata!^c8 |] %46
w: * Al- le- lu-|ja.|
V:4
 z8 | z8 | z8 | z8 | z8 |[M:2/2] A,,4 A,,4- | A,,2 ^G,,2 A,,2 B,,2 | C,4 B,,2 C,2 | D,2 E,2 =F,4 | %9
w: |||||Ab O\-|* ri- en- te|ve- ne- runt|Ma- gi in|
 E,2 A,2 (G,F,E,D, | C,4 =F,4- | F,2 =F,2 F,4- | F,4 C,4 | D,6 D,2 | A,,4 z4 | z8 | z2 C2 C2 B,2 | %17
w: Beth- le- hem, * * *|* a\-|* do- ra\-|* re|Do- mi-|num:||et a- per-|
 A,2 A,2 G,2 G,2 | C,2 C,2 C3 G, | A,2 E,2 =F,2 D,2 | E,4 C,4- | C,2 A,,2 E,4 | A,,4 z4 | %23
w: tis the- sau- ris|su- is, pre- ti-|o- sa mu- ne-|ra ob\-|* tu- le-|runt:|
 z4 z2 E,F, | G,E, A,2) G,2 E,2 | A,2 C2 B,2 B,2 | E,4 z4 | z2 (C,D, E,C, =F,2) | %28
w: Au\- *|* * * rum si-|cut Re- gi ma-|gno:|Thus * * * *|
 E,2 A,2 G,2 (G,A, | B,G, C2) G,4 | C,4 z4 | z8 | z8 | (C,3 D, E,C, =F,2) | C,2 D,2 C,2 C,2- | %35
w: si- cut De- o *|* * * ve-|ro;|||Myr\- * * * *|rham se- pul- tu\-|
 C,2 C,2 G,,4 | C,4 z2 C2 | B, C2 A, G,=F, G,2 | C,2 =F,2 E, F,2 D, | E,2 =F,2 E,4 | A,,4 z2 C2 | %41
w: * rae e-|jus, Al-|le- lu- ja, Al- le- lu-|ja, Al- le- lu- ja,|Al- le- lu-|ja, Al-|
 B, C2 A, G,=F, G,2 | C,2 =F,2 E, F,2 D, | E,2 =F,2 E,4 | A,,2 z D,2 ^C, D,2 | !fermata!A,,8 |] %46
w: le- lu- ja, Al- le- lu-|ja, Al- le- lu- ja,|Al- le- lu-|ja,- Al- le- lu-|ja.|

